tipitek/img/phone-icon.svg

<svg width="25" height="24" viewBox="0 0 25 24" fill="none" xmlns="http://www.w3.org/2000/svg">
<path fill-rule="evenodd" clip-rule="evenodd" d="M5.45215 0.000632347C6.75982 0.0181929 7.6917 0.99807 8.8706 2.23784C9.1621 2.54339 9.47702 2.87704 9.8294 3.22825C11.5375 4.93748 11.0516 6.33178 10.6594 7.45097C10.2333 8.67201 9.86452 9.72565 12.0725 11.9336C14.2804 14.1415 15.3329 13.7728 16.5527 13.3431C17.6731 12.9521 19.0639 12.4627 20.7755 14.172C21.1232 14.5197 21.451 14.8311 21.7553 15.1202C22.9998 16.305 23.9832 17.2404 23.9997 18.5516C24.0124 19.6684 23.3334 20.8087 21.657 22.4851L20.9148 21.9817L21.5434 22.594C21.1723 22.9745 20.1854 23.9883 18.2526 24H18.2175C15.3001 24 11.4965 21.6773 6.91202 17.094C2.30882 12.492 -0.0173643 8.6767 9.75808e-05 5.75346C0.0107326 3.8218 1.02339 2.83256 1.40387 2.46145L1.43634 2.42598L1.51508 2.34672C3.19504 0.666761 4.34935 -0.0239524 5.45215 0.000632347ZM5.42991 1.75668H5.42054C4.89482 1.75668 4.09644 2.2835 2.98294 3.3651L2.75934 3.58469L2.76188 3.58415C2.76188 3.58415 2.74277 3.60606 2.71021 3.63927L2.63193 3.71761C2.34862 3.99272 1.7621 4.5652 1.75619 5.76282C1.74688 7.4381 2.84851 10.5486 8.15296 15.8519C13.4316 21.1294 16.5375 22.2439 18.2175 22.2439H18.2421C19.4397 22.2369 20.011 21.6504 20.2861 21.3683C20.3692 21.2828 20.4371 21.2184 20.4851 21.1798C21.6523 20.0056 22.2494 19.1334 22.2436 18.5726C22.2365 18.0013 21.5259 17.327 20.5437 16.3916C20.2311 16.0954 19.8916 15.7711 19.5333 15.4129C18.6038 14.4869 18.1461 14.6449 17.1334 15.0008C15.7344 15.4913 13.818 16.1633 10.8315 13.1745C7.84389 10.1881 8.51353 8.27163 9.00172 6.87148C9.35527 5.85999 9.51683 5.3999 8.58846 4.47037C8.22554 4.10745 7.89892 3.76327 7.59805 3.44718C6.66851 2.47081 5.9977 1.76488 5.42991 1.75668ZM15.5074 4.1654C17.9436 4.63836 19.825 6.51851 20.2991 8.95591C20.3916 9.43355 20.0813 9.89364 19.606 9.98613C19.5487 9.99666 19.4925 10.0025 19.4363 10.0025C19.0242 10.0025 18.6578 9.71218 18.5758 9.29307C18.2387 7.56043 16.9029 6.22466 15.1726 5.88867C14.6961 5.79619 14.3859 5.3361 14.4784 4.85963C14.5709 4.38315 15.0391 4.07174 15.5074 4.1654ZM15.4373 0.00730534C20.2114 0.537633 23.919 4.24056 24.454 9.01351C24.5079 9.49584 24.1614 9.93017 23.6802 9.98402C23.6474 9.98753 23.6135 9.98987 23.5807 9.98987C23.1393 9.98987 22.76 9.65856 22.7097 9.21018C22.266 5.2579 19.1964 2.19066 15.243 1.75165C14.7618 1.6978 14.4141 1.26464 14.468 0.782309C14.5206 0.301151 14.9503 -0.0535711 15.4373 0.00730534Z" fill="black"/>
</svg>

<svg width="25" height="24" fill="none" xmlns="http://www.w3.org/2000/svg"><path fill-rule="evenodd" clip-rule="evenodd" d="M5.452 0c1.308.018 2.24.998 3.419 2.238.291.305.606.639.958.99 1.708 1.71 1.223 3.104.83 4.223-.426 1.221-.794 2.275 1.413 4.483 2.208 2.208 3.26 1.839 4.48 1.41 1.121-.392 2.512-.881 4.224.828.347.348.675.66.98.948C23 16.305 23.982 17.24 24 18.552c.012 1.116-.667 2.257-2.343 3.933l-.742-.503.628.612c-.37.38-1.358 1.394-3.29 1.406h-.035c-2.918 0-6.722-2.323-11.306-6.906C2.309 12.492-.018 8.677 0 5.754.01 3.821 1.023 2.832 1.404 2.46l.032-.035.08-.08C3.194.667 4.348-.023 5.451.002zM5.43 1.758h-.01c-.525 0-1.324.527-2.437 1.608l-.224.22h.003l-.052.054-.078.079c-.283.275-.87.847-.876 2.045-.01 1.675 1.093 4.786 6.397 10.089 5.279 5.277 8.385 6.392 10.065 6.392h.024c1.198-.007 1.769-.594 2.044-.876.083-.085.151-.15.2-.188 1.166-1.174 1.763-2.047 1.758-2.607-.008-.572-.718-1.246-1.7-2.181-.313-.297-.652-.62-1.01-.98-.93-.925-1.388-.767-2.4-.411-1.4.49-3.316 1.162-6.303-1.826-2.987-2.987-2.317-4.903-1.83-6.304.354-1.011.516-1.471-.413-2.4-.362-.364-.69-.708-.99-1.024-.93-.976-1.6-1.682-2.168-1.69zm10.077 2.408a6.032 6.032 0 0 1 4.792 4.79.878.878 0 1 1-1.723.338 4.285 4.285 0 0 0-3.403-3.404.877.877 0 1 1 .334-1.724zm-.07-4.158a10.151 10.151 0 0 1 9.017 9.007.878.878 0 1 1-1.744.196 8.407 8.407 0 0 0-7.467-7.458.877.877 0 0 1-.775-.97.87.87 0 0 1 .97-.775z" fill="#000"/></svg>
